www/assets/icons/photo_camera_back.svg

<svg xmlns="http://www.w3.org/2000/svg" width="24" height="24" viewBox="0 0 24 24" fill='currentColor'><path d="M20 5c1.1 0 2 .9 2 2v12c0 1.1-.9 2-2 2H4c-1.1 0-2-.9-2-2V7c0-1.1.9-2 2-2h3.17L9 3h6l1.83 2zm0 14V7H4v12zm-6-7-3 3.72L9 13l-3 4h12z"/></svg>

<svg width="24" height="24" viewBox="0 0 24 24" xmlns="http://www.w3.org/2000/svg" fill='currentColor'><path d="M20 5C21.1 5 22 5.9 22 7V19C22 20.1 21.1 21 20 21H4C2.9 21 2 20.1 2 19V7C2 5.9 2.9 5 4 5H7.17L9 3H15L16.83 5H20ZM20 19V7H4V19H20ZM14 12L11 15.72L9 13L6 17H18L14 12Z"/></svg>
